**harm	**harte	**timestamp	**phrase	**leadinstrument	**kern
*M4/4	*M4/4	*	*	*	*
*A-:	*A-:	*	*	*	*A-:
1r;	N	0	.	r	1r;
=1	=1	=1	=1	=1	=1
*>A_verse	*>A_verse	*>A_verse	*>A_verse	*>A_verse	*>A_verse
1I	A-:maj	1.1	newline	banjo	1A- 1cc 1ee-
=2	=2	=2	=2	=2	=2
1I	A-:maj	1.823	.	banjo	1A- 1cc 1ee-
=3	=3	=3	=3	=3	=3
1I	A-:maj	2.546	.	banjo	1A- 1cc 1ee-
=4	=4	=4	=4	=4	=4
1I	A-:maj	3.269	.	banjo	1A- 1cc 1ee-
=5	=5	=5	=5	=5	=5
1vi	F:min	3.992	newline	banjo	1F 1a- 1cc
=6	=6	=6	=6	=6	=6
1vi	F:min	4.724	.	banjo	1F 1a- 1cc
=7	=7	=7	=7	=7	=7
1I	A-:maj	5.455	.	banjo	1A- 1cc 1ee-
=8	=8	=8	=8	=8	=8
1I	A-:maj	6.187	.	banjo	1A- 1cc 1ee-
=9	=9	=9	=9	=9	=9
1vi	F:min	6.919	newline	banjo	1F 1a- 1cc
=10	=10	=10	=10	=10	=10
1vi	F:min	7.659	.	banjo	1F 1a- 1cc
=11	=11	=11	=11	=11	=11
1I	A-:maj	8.399	.	banjo	1A- 1cc 1ee-
=12	=12	=12	=12	=12	=12
1I	A-:maj	9.138	.	banjo	1A- 1cc 1ee-
=13	=13	=13	=13	=13	=13
1V7	E-:7	9.878	newline	banjo	1E- 1g 1b- 1dd-
=14	=14	=14	=14	=14	=14
1V7	E-:7	10.611	.	banjo	1E- 1g 1b- 1dd-
=15	=15	=15	=15	=15	=15
1I	A-:maj	11.345	.	banjo	1A- 1cc 1ee-
=16	=16	=16	=16	=16	=16
1I	A-:maj	12.078	.	banjo	1A- 1cc 1ee-
=17	=17	=17	=17	=17	=17
*>A_verse	*>A_verse	*>A_verse	*>A_verse	*>A_verse	*>A_verse
1I	A-:maj	12.811	newline	banjo	1A- 1cc 1ee-
=18	=18	=18	=18	=18	=18
1I	A-:maj	13.561	.	banjo	1A- 1cc 1ee-
=19	=19	=19	=19	=19	=19
1I	A-:maj	14.31	.	banjo	1A- 1cc 1ee-
=20	=20	=20	=20	=20	=20
1I	A-:maj	15.06	.	banjo	1A- 1cc 1ee-
=21	=21	=21	=21	=21	=21
1vi	F:min	15.81	newline	banjo	1F 1a- 1cc
=22	=22	=22	=22	=22	=22
1vi	F:min	16.552	.	banjo	1F 1a- 1cc
=23	=23	=23	=23	=23	=23
1vi	F:min	17.295	.	banjo	1F 1a- 1cc
=24	=24	=24	=24	=24	=24
1I	A-:maj	18.037	.	banjo	1A- 1cc 1ee-
=25	=25	=25	=25	=25	=25
1vi	F:min	18.779	newline	banjo	1F 1a- 1cc
=26	=26	=26	=26	=26	=26
1vi	F:min	19.533	.	banjo	1F 1a- 1cc
=27	=27	=27	=27	=27	=27
1vi	F:min	20.287	.	banjo	1F 1a- 1cc
=28	=28	=28	=28	=28	=28
1I	A-:maj	21.041	.	banjo	1A- 1cc 1ee-
=29	=29	=29	=29	=29	=29
1V7	E-:7	21.794	newline	banjo	1E- 1g 1b- 1dd-
=30	=30	=30	=30	=30	=30
1V7	E-:7	22.539	.	banjo	1E- 1g 1b- 1dd-
=31	=31	=31	=31	=31	=31
1I	A-:maj	23.284	.	banjo	1A- 1cc 1ee-
=32	=32	=32	=32	=32	=32
1I	A-:maj	24.029	.	banjo	1A- 1cc 1ee-
=33	=33	=33	=33	=33	=33
*>A_verse	*>A_verse	*>A_verse	*>A_verse	*>A_verse	*>A_verse
1I	A-:maj	24.774	newline	banjo	1A- 1cc 1ee-
=34	=34	=34	=34	=34	=34
1I	A-:maj	25.518	.	banjo	1A- 1cc 1ee-
=35	=35	=35	=35	=35	=35
1I	A-:maj	26.261	.	banjo	1A- 1cc 1ee-
=36	=36	=36	=36	=36	=36
1I	A-:maj	27.005	.	banjo	1A- 1cc 1ee-
=37	=37	=37	=37	=37	=37
1vi	F:min	27.749	newline	banjo	1F 1a- 1cc
=38	=38	=38	=38	=38	=38
1vi	F:min	28.497	.	banjo	1F 1a- 1cc
=39	=39	=39	=39	=39	=39
1I	A-:maj	29.245	.	banjo	1A- 1cc 1ee-
=40	=40	=40	=40	=40	=40
1I	A-:maj	29.993	.	banjo	1A- 1cc 1ee-
=41	=41	=41	=41	=41	=41
1vi	F:min	30.742	newline	banjo	1F 1a- 1cc
=42	=42	=42	=42	=42	=42
1vi	F:min	31.487	.	banjo	1F 1a- 1cc
=43	=43	=43	=43	=43	=43
1I	A-:maj	32.232	.	banjo	1A- 1cc 1ee-
=44	=44	=44	=44	=44	=44
1I	A-:maj	32.977	.	banjo	1A- 1cc 1ee-
=45	=45	=45	=45	=45	=45
1V7	E-:7	33.722	newline	banjo	1E- 1g 1b- 1dd-
=46	=46	=46	=46	=46	=46
1V7	E-:7	34.485	.	banjo	1E- 1g 1b- 1dd-
=47	=47	=47	=47	=47	=47
1I	A-:maj	35.247	.	banjo	1A- 1cc 1ee-
=48	=48	=48	=48	=48	=48
1I	A-:maj	36.01	.	banjo	1A- 1cc 1ee-
=49	=49	=49	=49	=49	=49
*>A_verse	*>A_verse	*>A_verse	*>A_verse	*>A_verse	*>A_verse
1I	A-:maj	36.773	newline	fiddle	1A- 1cc 1ee-
=50	=50	=50	=50	=50	=50
1I	A-:maj	37.53	.	fiddle	1A- 1cc 1ee-
=51	=51	=51	=51	=51	=51
1I	A-:maj	38.288	.	fiddle	1A- 1cc 1ee-
=52	=52	=52	=52	=52	=52
1I	A-:maj	39.046	.	fiddle	1A- 1cc 1ee-
=53	=53	=53	=53	=53	=53
1vi	F:min	39.804	newline	fiddle	1F 1a- 1cc
=54	=54	=54	=54	=54	=54
1vi	F:min	40.559	.	fiddle	1F 1a- 1cc
=55	=55	=55	=55	=55	=55
1vi	F:min	41.314	.	fiddle	1F 1a- 1cc
=56	=56	=56	=56	=56	=56
1I	A-:maj	42.07	.	fiddle	1A- 1cc 1ee-
=57	=57	=57	=57	=57	=57
1vi	F:min	42.825	newline	fiddle	1F 1a- 1cc
=58	=58	=58	=58	=58	=58
1vi	F:min	43.571	.	fiddle	1F 1a- 1cc
=59	=59	=59	=59	=59	=59
1vi	F:min	44.317	.	fiddle	1F 1a- 1cc
=60	=60	=60	=60	=60	=60
1I	A-:maj	45.063	.	fiddle	1A- 1cc 1ee-
=61	=61	=61	=61	=61	=61
1V7	E-:7	45.808	newline	fiddle	1E- 1g 1b- 1dd-
=62	=62	=62	=62	=62	=62
1V7	E-:7	46.561	.	fiddle	1E- 1g 1b- 1dd-
=63	=63	=63	=63	=63	=63
1I	A-:maj	47.313	.	fiddle	1A- 1cc 1ee-
=64	=64	=64	=64	=64	=64
1I	A-:maj	48.065	.	fiddle	1A- 1cc 1ee-
=65	=65	=65	=65	=65	=65
*>A_verse	*>A_verse	*>A_verse	*>A_verse	*>A_verse	*>A_verse
1I	A-:maj	48.817	newline	fiddle	1A- 1cc 1ee-
=66	=66	=66	=66	=66	=66
1I	A-:maj	49.569	.	fiddle	1A- 1cc 1ee-
=67	=67	=67	=67	=67	=67
1I	A-:maj	50.321	.	fiddle	1A- 1cc 1ee-
=68	=68	=68	=68	=68	=68
1I	A-:maj	51.073	.	fiddle	1A- 1cc 1ee-
=69	=69	=69	=69	=69	=69
1vi	F:min	51.825	newline	fiddle	1F 1a- 1cc
=70	=70	=70	=70	=70	=70
1vi	F:min	52.581	.	fiddle	1F 1a- 1cc
=71	=71	=71	=71	=71	=71
1vi	F:min	53.337	.	fiddle	1F 1a- 1cc
=72	=72	=72	=72	=72	=72
1I	A-:maj	54.093	.	fiddle	1A- 1cc 1ee-
=73	=73	=73	=73	=73	=73
1vi	F:min	54.849	newline	fiddle	1F 1a- 1cc
=74	=74	=74	=74	=74	=74
1vi	F:min	55.599	.	fiddle	1F 1a- 1cc
=75	=75	=75	=75	=75	=75
1vi	F:min	56.349	.	fiddle	1F 1a- 1cc
=76	=76	=76	=76	=76	=76
1I	A-:maj	57.099	.	fiddle	1A- 1cc 1ee-
=77	=77	=77	=77	=77	=77
1V7	E-:7	57.848	newline	fiddle	1E- 1g 1b- 1dd-
=78	=78	=78	=78	=78	=78
1V7	E-:7	58.602	.	fiddle	1E- 1g 1b- 1dd-
=79	=79	=79	=79	=79	=79
1I	A-:maj	59.356	.	fiddle	1A- 1cc 1ee-
=80	=80	=80	=80	=80	=80
1I	A-:maj	60.11	.	fiddle	1A- 1cc 1ee-
=81	=81	=81	=81	=81	=81
*>A_verse	*>A_verse	*>A_verse	*>A_verse	*>A_verse	*>A_verse
1I	A-:maj	60.864	newline	banjo	1A- 1cc 1ee-
=82	=82	=82	=82	=82	=82
1I	A-:maj	61.62	.	banjo	1A- 1cc 1ee-
=83	=83	=83	=83	=83	=83
1I	A-:maj	62.375	.	banjo	1A- 1cc 1ee-
=84	=84	=84	=84	=84	=84
1I	A-:maj	63.131	.	banjo	1A- 1cc 1ee-
=85	=85	=85	=85	=85	=85
1vi	F:min	63.887	newline	banjo	1F 1a- 1cc
=86	=86	=86	=86	=86	=86
1vi	F:min	64.643	.	banjo	1F 1a- 1cc
=87	=87	=87	=87	=87	=87
1vi	F:min	65.4	.	banjo	1F 1a- 1cc
=88	=88	=88	=88	=88	=88
1I	A-:maj	66.157	.	banjo	1A- 1cc 1ee-
=89	=89	=89	=89	=89	=89
1vi	F:min	66.914	newline	banjo	1F 1a- 1cc
=90	=90	=90	=90	=90	=90
1vi	F:min	67.669	.	banjo	1F 1a- 1cc
=91	=91	=91	=91	=91	=91
1vi	F:min	68.424	.	banjo	1F 1a- 1cc
=92	=92	=92	=92	=92	=92
1I	A-:maj	69.179	.	banjo	1A- 1cc 1ee-
=93	=93	=93	=93	=93	=93
1V7	E-:7	69.934	newline	banjo	1E- 1g 1b- 1dd-
=94	=94	=94	=94	=94	=94
1V7	E-:7	70.675	.	banjo	1E- 1g 1b- 1dd-
=95	=95	=95	=95	=95	=95
1I	A-:maj	71.416	.	banjo	1A- 1cc 1ee-
=96	=96	=96	=96	=96	=96
1I	A-:maj	72.156	.	banjo	1A- 1cc 1ee-
=97	=97	=97	=97	=97	=97
*>A_verse	*>A_verse	*>A_verse	*>A_verse	*>A_verse	*>A_verse
1I	A-:maj	72.897	newline	banjo	1A- 1cc 1ee-
=98	=98	=98	=98	=98	=98
1I	A-:maj	73.653	.	banjo	1A- 1cc 1ee-
=99	=99	=99	=99	=99	=99
1I	A-:maj	74.409	.	banjo	1A- 1cc 1ee-
=100	=100	=100	=100	=100	=100
1I	A-:maj	75.165	.	banjo	1A- 1cc 1ee-
=101	=101	=101	=101	=101	=101
1vi	F:min	75.921	newline	banjo	1F 1a- 1cc
=102	=102	=102	=102	=102	=102
1vi	F:min	76.68	.	banjo	1F 1a- 1cc
=103	=103	=103	=103	=103	=103
1vi	F:min	77.439	.	banjo	1F 1a- 1cc
=104	=104	=104	=104	=104	=104
1I	A-:maj	78.198	.	banjo	1A- 1cc 1ee-
=105	=105	=105	=105	=105	=105
1vi	F:min	78.957	newline	banjo	1F 1a- 1cc
=106	=106	=106	=106	=106	=106
1vi	F:min	79.697	.	banjo	1F 1a- 1cc
=107	=107	=107	=107	=107	=107
1vi	F:min	80.437	.	banjo	1F 1a- 1cc
=108	=108	=108	=108	=108	=108
1I	A-:maj	81.178	.	banjo	1A- 1cc 1ee-
=109	=109	=109	=109	=109	=109
1V7	E-:7	81.918	newline	banjo	1E- 1g 1b- 1dd-
=110	=110	=110	=110	=110	=110
1V7	E-:7	82.669	.	banjo	1E- 1g 1b- 1dd-
=111	=111	=111	=111	=111	=111
1I	A-:maj	83.419	.	banjo	1A- 1cc 1ee-
=112	=112	=112	=112	=112	=112
1I	A-:maj	84.169	.	banjo	1A- 1cc 1ee-
=113	=113	=113	=113	=113	=113
*>A_verse	*>A_verse	*>A_verse	*>A_verse	*>A_verse	*>A_verse
1I	A-:maj	84.92	newline	banjo	1A- 1cc 1ee-
=114	=114	=114	=114	=114	=114
1I	A-:maj	85.689	.	banjo	1A- 1cc 1ee-
=115	=115	=115	=115	=115	=115
1I	A-:maj	86.457	.	banjo	1A- 1cc 1ee-
=116	=116	=116	=116	=116	=116
1I	A-:maj	87.226	.	banjo	1A- 1cc 1ee-
=117	=117	=117	=117	=117	=117
1vi	F:min	87.995	newline	banjo	1F 1a- 1cc
=118	=118	=118	=118	=118	=118
1vi	F:min	88.745	.	banjo	1F 1a- 1cc
=119	=119	=119	=119	=119	=119
1vi	F:min	89.495	.	banjo	1F 1a- 1cc
=120	=120	=120	=120	=120	=120
1I	A-:maj	90.245	.	banjo	1A- 1cc 1ee-
=121	=121	=121	=121	=121	=121
1vi	F:min	90.994	newline	banjo	1F 1a- 1cc
=122	=122	=122	=122	=122	=122
1vi	F:min	91.748	.	banjo	1F 1a- 1cc
=123	=123	=123	=123	=123	=123
1vi	F:min	92.501	.	banjo	1F 1a- 1cc
=124	=124	=124	=124	=124	=124
1I	A-:maj	93.254	.	banjo	1A- 1cc 1ee-
=125	=125	=125	=125	=125	=125
1V7	E-:7	94.007	newline	banjo	1E- 1g 1b- 1dd-
=126	=126	=126	=126	=126	=126
1V7	E-:7	94.754	.	banjo	1E- 1g 1b- 1dd-
=127	=127	=127	=127	=127	=127
1I	A-:maj	95.5	.	banjo	1A- 1cc 1ee-
=128	=128	=128	=128	=128	=128
1I	A-:maj	96.247	.	banjo	1A- 1cc 1ee-
=129	=129	=129	=129	=129	=129
*>A_verse	*>A_verse	*>A_verse	*>A_verse	*>A_verse	*>A_verse
1I	A-:maj	96.994	newline	banjo	1A- 1cc 1ee-
=130	=130	=130	=130	=130	=130
1I	A-:maj	97.745	.	banjo	1A- 1cc 1ee-
=131	=131	=131	=131	=131	=131
1I	A-:maj	98.496	.	banjo	1A- 1cc 1ee-
=132	=132	=132	=132	=132	=132
1I	A-:maj	99.248	.	banjo	1A- 1cc 1ee-
=133	=133	=133	=133	=133	=133
1vi	F:min	99.999	newline	banjo	1F 1a- 1cc
=134	=134	=134	=134	=134	=134
1vi	F:min	100.753	.	banjo	1F 1a- 1cc
=135	=135	=135	=135	=135	=135
1vi	F:min	101.506	.	banjo	1F 1a- 1cc
=136	=136	=136	=136	=136	=136
1I	A-:maj	102.26	.	banjo	1A- 1cc 1ee-
=137	=137	=137	=137	=137	=137
1vi	F:min	103.014	newline	banjo	1F 1a- 1cc
=138	=138	=138	=138	=138	=138
1vi	F:min	103.745	.	banjo	1F 1a- 1cc
=139	=139	=139	=139	=139	=139
1vi	F:min	104.476	.	banjo	1F 1a- 1cc
=140	=140	=140	=140	=140	=140
1I	A-:maj	105.206	.	banjo	1A- 1cc 1ee-
=141	=141	=141	=141	=141	=141
1V7	E-:7	105.937	newline	banjo	1E- 1g 1b- 1dd-
=142	=142	=142	=142	=142	=142
1V7	E-:7	106.689	.	banjo	1E- 1g 1b- 1dd-
=143	=143	=143	=143	=143	=143
1I	A-:maj	107.442	.	banjo	1A- 1cc 1ee-
=144	=144	=144	=144	=144	=144
1I	A-:maj	108.194	.	banjo	1A- 1cc 1ee-
=145	=145	=145	=145	=145	=145
*>A_verse	*>A_verse	*>A_verse	*>A_verse	*>A_verse	*>A_verse
1I	A-:maj	108.946	newline	fiddle	1A- 1cc 1ee-
=146	=146	=146	=146	=146	=146
1I	A-:maj	109.728	.	fiddle	1A- 1cc 1ee-
=147	=147	=147	=147	=147	=147
1I	A-:maj	110.51	.	fiddle	1A- 1cc 1ee-
=148	=148	=148	=148	=148	=148
1I	A-:maj	111.291	.	fiddle	1A- 1cc 1ee-
=149	=149	=149	=149	=149	=149
1vi	F:min	112.073	newline	fiddle	1F 1a- 1cc
=150	=150	=150	=150	=150	=150
1vi	F:min	112.815	.	fiddle	1F 1a- 1cc
=151	=151	=151	=151	=151	=151
1vi	F:min	113.556	.	fiddle	1F 1a- 1cc
=152	=152	=152	=152	=152	=152
1I	A-:maj	114.298	.	fiddle	1A- 1cc 1ee-
=153	=153	=153	=153	=153	=153
1vi	F:min	115.04	newline	fiddle	1F 1a- 1cc
=154	=154	=154	=154	=154	=154
1vi	F:min	115.816	.	fiddle	1F 1a- 1cc
=155	=155	=155	=155	=155	=155
1vi	F:min	116.592	.	fiddle	1F 1a- 1cc
=156	=156	=156	=156	=156	=156
1I	A-:maj	117.368	.	fiddle	1A- 1cc 1ee-
=157	=157	=157	=157	=157	=157
1V7	E-:7	118.144	newline	fiddle	1E- 1g 1b- 1dd-
=158	=158	=158	=158	=158	=158
1V7	E-:7	118.901	.	fiddle	1E- 1g 1b- 1dd-
=159	=159	=159	=159	=159	=159
1I	A-:maj	119.659	.	fiddle	1A- 1cc 1ee-
=160	=160	=160	=160	=160	=160
1I	A-:maj	120.416	.	fiddle	1A- 1cc 1ee-
=161	=161	=161	=161	=161	=161
*>A_verse	*>A_verse	*>A_verse	*>A_verse	*>A_verse	*>A_verse
1I	A-:maj	121.174	newline	fiddle	1A- 1cc 1ee-
=162	=162	=162	=162	=162	=162
1I	A-:maj	121.937	.	fiddle	1A- 1cc 1ee-
=163	=163	=163	=163	=163	=163
1I	A-:maj	122.699	.	fiddle	1A- 1cc 1ee-
=164	=164	=164	=164	=164	=164
1I	A-:maj	123.462	.	fiddle	1A- 1cc 1ee-
=165	=165	=165	=165	=165	=165
1vi	F:min	124.225	newline	fiddle	1F 1a- 1cc
=166	=166	=166	=166	=166	=166
1vi	F:min	124.998	.	fiddle	1F 1a- 1cc
=167	=167	=167	=167	=167	=167
1vi	F:min	125.772	.	fiddle	1F 1a- 1cc
=168	=168	=168	=168	=168	=168
1I	A-:maj	126.545	.	fiddle	1A- 1cc 1ee-
=169	=169	=169	=169	=169	=169
1vi	F:min	127.319	newline	fiddle	1F 1a- 1cc
=170	=170	=170	=170	=170	=170
1vi	F:min	128.076	.	fiddle	1F 1a- 1cc
=171	=171	=171	=171	=171	=171
1vi	F:min	128.834	.	fiddle	1F 1a- 1cc
=172	=172	=172	=172	=172	=172
1I	A-:maj	129.592	.	fiddle	1A- 1cc 1ee-
=173	=173	=173	=173	=173	=173
1V7	E-:7	130.349	newline	fiddle	1E- 1g 1b- 1dd-
=174	=174	=174	=174	=174	=174
1V7	E-:7	131.103	.	fiddle	1E- 1g 1b- 1dd-
=175	=175	=175	=175	=175	=175
1I	A-:maj	131.857	.	fiddle	1A- 1cc 1ee-
=176	=176	=176	=176	=176	=176
1I	A-:maj	132.611	.	fiddle	1A- 1cc 1ee-
=177	=177	=177	=177	=177	=177
*>A_verse	*>A_verse	*>A_verse	*>A_verse	*>A_verse	*>A_verse
1I	A-:maj	133.365	newline	banjo	1A- 1cc 1ee-
=178	=178	=178	=178	=178	=178
1I	A-:maj	134.122	.	banjo	1A- 1cc 1ee-
=179	=179	=179	=179	=179	=179
1I	A-:maj	134.88	.	banjo	1A- 1cc 1ee-
=180	=180	=180	=180	=180	=180
1I	A-:maj	135.637	.	banjo	1A- 1cc 1ee-
=181	=181	=181	=181	=181	=181
1vi	F:min	136.395	newline	banjo	1F 1a- 1cc
=182	=182	=182	=182	=182	=182
1vi	F:min	137.151	.	banjo	1F 1a- 1cc
=183	=183	=183	=183	=183	=183
1I	A-:maj	137.907	.	banjo	1A- 1cc 1ee-
=184	=184	=184	=184	=184	=184
1I	A-:maj	138.664	.	banjo	1A- 1cc 1ee-
=185	=185	=185	=185	=185	=185
1vi	F:min	139.42	newline	banjo	1F 1a- 1cc
=186	=186	=186	=186	=186	=186
1vi	F:min	140.18	.	banjo	1F 1a- 1cc
=187	=187	=187	=187	=187	=187
1I	A-:maj	140.94	.	banjo	1A- 1cc 1ee-
=188	=188	=188	=188	=188	=188
1I	A-:maj	141.7	.	banjo	1A- 1cc 1ee-
=189	=189	=189	=189	=189	=189
1V7	E-:7	142.46	newline	banjo	1E- 1g 1b- 1dd-
=190	=190	=190	=190	=190	=190
1V7	E-:7	143.215	.	banjo	1E- 1g 1b- 1dd-
=191	=191	=191	=191	=191	=191
1I	A-:maj	143.971	.	banjo	1A- 1cc 1ee-
=192	=192	=192	=192	=192	=192
1I	A-:maj	144.726	.	banjo	1A- 1cc 1ee-
=193	=193	=193	=193	=193	=193
*>A2_verse	*>A2_verse	*>A2_verse	*>A2_verse	*>A2_verse	*>A2_verse
1I	A-:maj	145.481	newline	banjo	1A- 1cc 1ee-
=194	=194	=194	=194	=194	=194
1I	A-:maj	146.245	.	banjo	1A- 1cc 1ee-
=195	=195	=195	=195	=195	=195
1I	A-:maj	147.01	.	banjo	1A- 1cc 1ee-
=196	=196	=196	=196	=196	=196
1I	A-:maj	147.774	.	banjo	1A- 1cc 1ee-
=197	=197	=197	=197	=197	=197
1vi	F:min	148.539	newline	banjo	1F 1a- 1cc
=198	=198	=198	=198	=198	=198
1vi	F:min	149.286	.	banjo	1F 1a- 1cc
=199	=199	=199	=199	=199	=199
1I	A-:maj	150.033	.	banjo	1A- 1cc 1ee-
=200	=200	=200	=200	=200	=200
1I	A-:maj	150.78	.	banjo	1A- 1cc 1ee-
=201	=201	=201	=201	=201	=201
1vi	F:min	151.527	newline	banjo	1F 1a- 1cc
=202	=202	=202	=202	=202	=202
1vi	F:min	152.268	.	banjo	1F 1a- 1cc
=203	=203	=203	=203	=203	=203
1I	A-:maj	153.008	.	banjo	1A- 1cc 1ee-
=204	=204	=204	=204	=204	=204
1I	A-:maj	153.749	.	banjo	1A- 1cc 1ee-
=205	=205	=205	=205	=205	=205
1V7	E-:7	154.49	newline	banjo	1E- 1g 1b- 1dd-
=206	=206	=206	=206	=206	=206
1V7	E-:7	155.266	.	banjo	1E- 1g 1b- 1dd-
=207	=207	=207	=207	=207	=207
1I	A-:maj	156.042	.	banjo	1A- 1cc 1ee-
=208	=208	=208	=208	=208	=208
1I	A-:maj	156.818	.	banjo	1A- 1cc 1ee-
=209	=209	=209	=209	=209	=209
1I	A-:maj	157.594	newline	banjo	1A- 1cc 1ee-
1r;	N	158.824	.	r	1r;
1r;	N	161.724	.	r	1r;
*-	*-	*-	*-	*-	*-
!!!OTL: Foggy Mountain Breakdown
!!!COC: Flatt & Scruggs
!!!BillboardChartDate: 1968/04/13, 1968/03/30
!!!BillboardPeak: 55, 55
!!!BillboardWeeksOnChart: 12, 12
!!!SampleTargetRank: 67, 76
!!!SampleActualRank: 65, 74
!!!SampleID#: 37, 759
!!!RDF**harmony: **recip + pitch class of root + harmonic quality
!!!RDF**harte: Chris Harte's syntax, used by MIREX
!!!RDF**phrase: newline = linebreak in original McGill transcription
!!!RDF**timestamp: McGill audio timestamp in seconds
!!!RDF**leadinstrument: original McGill primary instrumentation annotation
!!!RDT: 2017/01/12/
!!!ENC: Nathaniel Condit-Schultz
!!!EST: Awating manual error checking and editing.
